X: 1094
T: Amelia Manuel's
R: jig
M: 6/8
K: Dmajor
|:Adf ecA|BGB ABc|dfe dfg|afd edc|
dfe dBA|BGB ABc|d2B BAF|dAF EFG:|
dBg gdc|daf fed|efe edB|egf edc|
dBg gdc|daf fed|efe edB|ABc d2c|
dBg gdc|daf fed|efe efa|baf edc|
dBg gdc|daf fed|efe edB|ABc d3||

